!! 00000] TT[WS
!!!OTL: Zongliangshang shangdiao rengbuxi niang
!!!ARE: Asia, China, Shanxi Hequ
!! Ethnic Group: Han
!! WI, 43
!!!SCT: J0047
!!!YEM: Copyright 1995, estate of Helmut Schaffrath.
**kern
*ICvox
*Ivox
!! Mixed meters:  2/4; 1/4
*M2/4
*k[b-]
*F:
{8dd
4cc
16dd
16ff
=1
8a
16a
16g
8f
8d
=2
*M1/4
16f
16f
16f
16g
=3
*M2/4
8a
16a
16cc
16g
8f
16d
=4
2c}
=5
{8dd
4cc
16dd
16ff
=6
8a
16a
16g
8f
8d
=7
*M1/4
16f
16f
16f
16g
=8
*M2/4
8a
16a
16cc
16g
8f
16d
=9
2c}
==
!!!AGN: Shange, Shanqu. Aisu
!!!ONB: ESAC (Essen Associative Code) Database: CHINA
!!!AMT: irregular
!!!AIN: vox
!!!EED: Helmut Schaffrath
!!!EEV: 1.0
*-
